icons/global/user-settings/experiments.svg

<svg width="24" height="24" viewBox="0 0 24 24" fill="none" xmlns="http://www.w3.org/2000/svg">
<path d="M18.668 11.996C19.599 13.221 20.373 14.433 20.942 15.57C22.586 18.86 22.012 20.469 21.242 21.24C20.895 21.585 20.26 21.998 19.195 21.998C17.365 21.998 14.748 20.755 12 18.668C9.25199 20.755 6.63499 21.998 4.80599 21.998C3.74099 21.998 3.10499 21.585 2.75899 21.24C1.98799 20.468 1.41399 18.86 3.05899 15.57C3.62799 14.433 4.40299 13.222 5.33199 11.996C2.51599 8.283 1.00199 4.517 2.75999 2.76C3.10599 2.413 3.74099 2 4.80599 2C6.63599 2 9.25299 3.243 12 5.33C14.75 3.242 17.366 2 19.195 2C20.26 2 20.895 2.412 21.242 2.759C22.999 4.516 21.485 8.282 18.668 11.996ZM19.82 4.18C19.68 4.04 19.403 4.01 19.195 4.01C18.048 4.01 15.993 4.92 13.621 6.648C14.9597 7.80329 16.2114 9.05568 17.366 10.395C19.752 7.132 20.354 4.715 19.82 4.18ZM14.132 14.132C14.8144 13.4493 15.4683 12.7387 16.092 12.002C15.4686 11.2631 14.8147 10.5504 14.132 9.866C13.4491 9.18818 12.7378 8.53959 12 7.922C11.3 8.513 10.588 9.147 9.86799 9.866C9.18523 10.5504 8.53133 11.263 7.90799 12.002C8.532 12.7384 9.18588 13.449 9.86799 14.132C10.588 14.852 11.3 15.486 12 16.075C12.701 15.485 13.413 14.851 14.133 14.132H14.132ZM4.80599 4.01C4.59899 4.01 4.32099 4.039 4.18099 4.18C3.64699 4.713 4.24999 7.13 6.63599 10.393C7.83599 9.003 9.05699 7.793 10.38 6.646C8.00599 4.92 5.95299 4.011 4.80599 4.011V4.01ZM4.17999 19.818C4.31999 19.958 4.59799 19.988 4.80599 19.988C5.95299 19.988 8.00699 19.078 10.38 17.351C9.04326 16.197 7.79354 14.946 6.64099 13.608C5.92099 14.593 5.31099 15.56 4.85699 16.468C3.79499 18.591 3.94999 19.588 4.17999 19.818ZM19.194 19.988C19.402 19.988 19.68 19.958 19.819 19.818C20.049 19.588 20.204 18.592 19.143 16.468C18.688 15.559 18.079 14.592 17.358 13.608C16.2058 14.9459 14.9564 16.197 13.62 17.351C15.993 19.078 18.047 19.987 19.194 19.987V19.988ZM14.011 11.998C14.011 12.5312 13.7992 13.0426 13.4221 13.4196C13.0451 13.7967 12.5337 14.0085 12.0005 14.0085C11.4673 14.0085 10.9559 13.7967 10.5789 13.4196C10.2018 13.0426 9.98999 12.5312 9.98999 11.998C9.98999 11.4649 10.2018 10.9537 10.5787 10.5767C10.9557 10.1998 11.4669 9.988 12 9.988C12.5331 9.988 13.0443 10.1998 13.4213 10.5767C13.7982 10.9537 14.01 11.4649 14.01 11.998H14.011Z" fill="black"/>
</svg>

<svg xmlns="http://www.w3.org/2000/svg" width="24" height="24" fill="none">
  <path fill="#000" d="M18.668 11.996c.931 1.225 1.705 2.437 2.274 3.574 1.644 3.29 1.07 4.899.3 5.67-.347.345-.982.758-2.047.758-1.83 0-4.447-1.243-7.195-3.33-2.748 2.087-5.365 3.33-7.194 3.33-1.065 0-1.701-.413-2.047-.758-.771-.772-1.345-2.38.3-5.67.569-1.137 1.344-2.348 2.273-3.574C2.516 8.283 1.002 4.517 2.76 2.76c.346-.347.981-.76 2.046-.76C6.636 2 9.253 3.243 12 5.33 14.75 3.242 17.366 2 19.195 2c1.065 0 1.7.412 2.047.759 1.757 1.757.243 5.523-2.574 9.237ZM19.82 4.18c-.14-.14-.417-.17-.625-.17-1.147 0-3.202.91-5.574 2.638a35.987 35.987 0 0 1 3.745 3.747c2.386-3.263 2.988-5.68 2.454-6.215Zm-5.688 9.952a35.03 35.03 0 0 0 1.96-2.13 34.797 34.797 0 0 0-1.96-2.136A34.064 34.064 0 0 0 12 7.922c-.7.591-1.412 1.225-2.132 1.944a34.73 34.73 0 0 0-1.96 2.136 35.406 35.406 0 0 0 1.96 2.13A33.27 33.27 0 0 0 12 16.075a33.6 33.6 0 0 0 2.133-1.943h-.001ZM4.806 4.01c-.207 0-.485.029-.625.17-.534.533.069 2.95 2.455 6.213 1.2-1.39 2.421-2.6 3.744-3.747C8.006 4.92 5.953 4.011 4.806 4.011V4.01ZM4.18 19.818c.14.14.418.17.626.17 1.147 0 3.201-.91 5.574-2.637a35.886 35.886 0 0 1-3.739-3.743c-.72.985-1.33 1.952-1.784 2.86-1.062 2.123-.907 3.12-.677 3.35Zm15.014.17c.208 0 .486-.03.625-.17.23-.23.385-1.226-.676-3.35-.455-.909-1.064-1.876-1.785-2.86a35.885 35.885 0 0 1-3.738 3.743c2.373 1.727 4.427 2.636 5.574 2.636v.001Zm-5.183-7.99a2.01 2.01 0 1 1-4.018 0 2.01 2.01 0 0 1 4.017 0h.001Z"/>
</svg>
